X:84
M:4/4
L:1/4
K:G
D E D3/2 G/ | G/F/ G/A/ B A | B G E c | B A G2 | D E D3/2 G/ | G/F/ G/A/ B A | B c d c/A/ | G F G2 | A3/2 B/ c A | B3/2 c/ .(d B) | d3/2 d/ d/d/ d/d/ | d4 | !sintro!d3/2 c/ B/d/ c/A/ | G F G2 !eintro!|]
